gama.ui.shared/icons_svg/dark/gaml/_graph.svg

<?xml version="1.0" encoding="UTF-8" standalone="no"?>
<!DOCTYPE svg PUBLIC "-//W3C//DTD SVG 1.1//EN" "http://www.w3.org/Graphics/SVG/1.1/DTD/svg11.dtd">
<svg xmlns:dc="http://purl.org/dc/elements/1.1/" xmlns:xl="http://www.w3.org/1999/xlink" version="1.1" xmlns="http://www.w3.org/2000/svg" viewBox="-381.5871 -2834.0862 24 18" width="24" height="18">
  <defs/>
  <g id="SOURCES" stroke-dasharray="none" stroke="none" stroke-opacity="1" fill="none" fill-opacity="1">
    <title>SOURCES</title>
    <g id="SOURCES_New">
      <title>New</title>
      <g id="Group_10485">
        <g id="Graphic_10151"/>
        <g id="Group_10054">
          <title>git-branch</title>
          <g id="Graphic_10055">
            <path d="M -376.7151 -2820.1862 C -376.8831 -2818.9962 -377.9051 -2818.0862 -379.1371 -2818.0862 C -380.4881 -2818.0862 -381.5871 -2819.1852 -381.5871 -2820.5362 C -381.5871 -2821.7682 -380.6771 -2822.7902 -379.4871 -2822.9582 L -379.4871 -2827.2072 C -380.6771 -2827.3752 -381.5871 -2828.3972 -381.5871 -2829.6292 C -381.5871 -2830.9872 -380.4881 -2832.0862 -379.1371 -2832.0862 C -377.7861 -2832.0862 -376.6871 -2830.9872 -376.6871 -2829.6362 C -376.6871 -2828.4042 -377.5971 -2827.3822 -378.7871 -2827.2142 L -378.7871 -2822.9652 C -377.7161 -2822.8112 -376.8621 -2821.9642 -376.7151 -2820.8932 L -373.5371 -2820.8932 C -372.1861 -2820.8932 -371.0871 -2821.9922 -371.0871 -2823.3432 L -371.0871 -2823.7212 C -372.2771 -2823.8892 -373.1871 -2824.9112 -373.1871 -2826.1432 C -373.1871 -2827.4942 -372.0881 -2828.5932 -370.7371 -2828.5932 C -369.3861 -2828.5932 -368.2871 -2827.4942 -368.2871 -2826.1432 C -368.2871 -2824.9112 -369.1971 -2823.8892 -370.3871 -2823.7212 L -370.3871 -2823.3432 C -370.3871 -2821.6002 -371.7941 -2820.1932 -373.5371 -2820.1932 L -376.7151 -2820.1932 Z M -380.8871 -2820.5362 C -380.8871 -2819.5702 -380.1031 -2818.7862 -379.1371 -2818.7862 C -378.1711 -2818.7862 -377.3871 -2819.5702 -377.3871 -2820.5362 C -377.3871 -2821.5022 -378.1711 -2822.2862 -379.1371 -2822.2862 C -380.1031 -2822.2862 -380.8871 -2821.5022 -380.8871 -2820.5362 Z M -380.8871 -2829.6362 C -380.8871 -2828.6702 -380.1031 -2827.8862 -379.1371 -2827.8862 C -378.1711 -2827.8862 -377.3871 -2828.6702 -377.3871 -2829.6362 C -377.3871 -2830.6022 -378.1711 -2831.3862 -379.1371 -2831.3862 C -380.1031 -2831.3862 -380.8871 -2830.6022 -380.8871 -2829.6362 Z M -370.7371 -2824.3862 C -369.7711 -2824.3862 -368.9871 -2825.1702 -368.9871 -2826.1362 C -368.9871 -2827.1022 -369.7711 -2827.8862 -370.7371 -2827.8862 C -371.7031 -2827.8862 -372.4871 -2827.1022 -372.4871 -2826.1362 C -372.4871 -2825.1702 -371.7031 -2824.3862 -370.7371 -2824.3862 Z" fill="#999"/>
          </g>
        </g>
      </g>
    </g>
  </g>
</svg>

<svg height="18" viewBox="-381.587 -2834.086 24 18" width="24" xmlns="http://www.w3.org/2000/svg"><path d="m-376.7151-2820.1862c-.168 1.19-1.19 2.1-2.422 2.1-1.351 0-2.45-1.099-2.45-2.45 0-1.232.91-2.254 2.1-2.422v-4.249c-1.19-.168-2.1-1.19-2.1-2.422 0-1.358 1.099-2.457 2.45-2.457s2.45 1.099 2.45 2.45c0 1.232-.91 2.254-2.1 2.422v4.249c1.071.154 1.925 1.001 2.072 2.072h3.178c1.351 0 2.45-1.099 2.45-2.45v-.378c-1.19-.168-2.1-1.19-2.1-2.422 0-1.351 1.099-2.45 2.45-2.45s2.45 1.099 2.45 2.45c0 1.232-.91 2.254-2.1 2.422v.378c0 1.743-1.407 3.15-3.15 3.15h-3.178zm-4.172-.35c0 .966.784 1.75 1.75 1.75s1.75-.784 1.75-1.75-.784-1.75-1.75-1.75-1.75.784-1.75 1.75zm0-9.1c0 .966.784 1.75 1.75 1.75s1.75-.784 1.75-1.75-.784-1.75-1.75-1.75-1.75.784-1.75 1.75zm10.15 5.25c.966 0 1.75-.784 1.75-1.75s-.784-1.75-1.75-1.75-1.75.784-1.75 1.75.784 1.75 1.75 1.75z" fill="#999"/></svg>
